assets/icons/qvision/mark_chat_read.svg

<svg xmlns="http://www.w3.org/2000/svg" enable-background="new 0 0 24 24" height="24" viewBox="0 0 24 24" width="24"><g><rect fill="none" height="24" width="24" x="0"/><path d="M17.34,20l-3.54-3.54l1.41-1.41l2.12,2.12l4.24-4.24L23,14.34L17.34,20z M12,17c0-3.87,3.13-7,7-7c1.08,0,2.09,0.25,3,0.68 V4c0-1.1-0.9-2-2-2H4C2.9,2,2,2.9,2,4v18l4-4h6v0c0-0.17,0.01-0.33,0.03-0.5C12.01,17.34,12,17.17,12,17z"/></g></svg>

<svg width="24" height="24" viewBox="0 0 24 24" fill="none" xmlns="http://www.w3.org/2000/svg">
<g clip-path="url(#clip0_147_1875)">
<path d="M17.34 20L13.8 16.46L15.21 15.05L17.33 17.17L21.57 12.93L23 14.34L17.34 20ZM12 17C12 13.13 15.13 10 19 10C20.08 10 21.09 10.25 22 10.68V4C22 2.9 21.1 2 20 2H4C2.9 2 2 2.9 2 4V22L6 18H12C12 17.83 12.01 17.67 12.03 17.5C12.01 17.34 12 17.17 12 17Z" fill="#323232"/>
</g>
<defs>
<clipPath id="clip0_147_1875">
<rect width="24" height="24" fill="white"/>
</clipPath>
</defs>
</svg>
